src/images/app-icons/dark-theme/EcosystemItalia.svg

<svg xmlns="http://www.w3.org/2000/svg" xmlns:xlink="http://www.w3.org/1999/xlink" viewBox="0 0 32 32"><defs><linearGradient id="EcosystemItalia_svg__a" x1="12.5" y1="7418.999" x2="20.5" y2="7418.999" gradientTransform="matrix(1 0 0 -1 -6.5 7423.5)" gradientUnits="userSpaceOnUse"><stop offset="0" stop-opacity="0"/><stop offset=".8"/></linearGradient><linearGradient id="EcosystemItalia_svg__b" x1="-3656.999" y1="3677.5" x2="-3649.999" y2="3677.5" gradientTransform="matrix(1 0 0 -1 3679.999 3686.001)" xlink:href="#EcosystemItalia_svg__a"/><linearGradient id="EcosystemItalia_svg__c" x1="102.5" y1="-14.999" x2="109.5" y2="-14.999" gradientTransform="matrix(1 0 0 -1 -83.5 8.502)" xlink:href="#EcosystemItalia_svg__a"/><linearGradient id="EcosystemItalia_svg__d" x1="3749.999" y1="3719.5" x2="3756.999" y2="3719.5" gradientTransform="matrix(1 0 0 -1 -3747.999 3739.001)" xlink:href="#EcosystemItalia_svg__a"/><linearGradient id="EcosystemItalia_svg__f" y1="32" x2="32" gradientUnits="userSpaceOnUse"><stop offset=".1" stop-color="#6fdc8c"/><stop offset=".9" stop-color="#009d9a"/></linearGradient><mask id="EcosystemItalia_svg__e" x="0" y="0" width="32" height="32" maskUnits="userSpaceOnUse"><path d="M6 9H4V7a4.006 4.006 0 014-4h5v2H8a2 2 0 00-2 2z" fill="#fff"/><path fill="url(#EcosystemItalia_svg__a)" d="M6 2.001h8v5H6z"/><path d="M28 11h-2V7a2 2 0 00-2-2h-3V3h3a4.006 4.006 0 014 4z" fill="#fff"/><path transform="rotate(90 26.5 8.501)" fill="url(#EcosystemItalia_svg__b)" d="M23 6.001h7v5h-7z"/><path d="M24 25h-4v-2h4a2 2 0 002-2v-2h2v2a4.006 4.006 0 01-4 4z" fill="#fff"/><path transform="rotate(180 22.5 23.501)" fill="url(#EcosystemItalia_svg__c)" d="M19 21.001h7v5h-7z"/><path d="M10 25H8a4.006 4.006 0 01-4-4v-4h2v4a2 2 0 002 2h2z" fill="#fff"/><path transform="rotate(-90 5.5 19.501)" fill="url(#EcosystemItalia_svg__d)" d="M2 17.001h7v5H2z"/></mask></defs><g data-name="Layer 2"><g data-name="Dark theme icons"><g mask="url(#EcosystemItalia_svg__e)"><path fill="url(#EcosystemItalia_svg__f)" d="M0 0h32v32H0z"/></g><path d="M16 17a4 4 0 104 4 4 4 0 00-4-4zm0 6a2 2 0 112-2 2 2 0 01-2 2zM11 29v1h2v-1a1 1 0 011-1h4a1 1 0 011 1v1h2v-1a3 3 0 00-3-3h-4a3 3 0 00-3 3zM5 17a3 3 0 113-3 3 3 0 01-3 3zm0-4a1 1 0 101 1 1 1 0 00-1-1zM27 17a3 3 0 113-3 3 3 0 01-3 3zm0-4a1 1 0 101 1 1 1 0 00-1-1zM16 7a3 3 0 113-3 3 3 0 01-3 3zm0-4a1 1 0 101 1 1 1 0 00-1-1z" fill="#f4f4f4"/></g></g></svg>

<svg xmlns="http://www.w3.org/2000/svg" xmlns:xlink="http://www.w3.org/1999/xlink" viewBox="0 0 32 32"><defs><style>.cls-1{fill:#fff;}.cls-2{fill:url(#linear-gradient);}.cls-3{fill:url(#linear-gradient-2);}.cls-4{fill:url(#linear-gradient-3);}.cls-5{fill:url(#linear-gradient-4);}.cls-6{mask:url(#mask);}.cls-7{fill:url(#linear-gradient-5);}.cls-8{fill:#f4f4f4;}</style><linearGradient id="linear-gradient" x1="12.5" y1="7418.999" x2="20.5" y2="7418.999" gradientTransform="matrix(1, 0, 0, -1, -6.5, 7423.5)" gradientUnits="userSpaceOnUse"><stop offset="0" stop-opacity="0"/><stop offset="0.8"/></linearGradient><linearGradient id="linear-gradient-2" x1="-3656.999" y1="3677.5" x2="-3649.999" y2="3677.5" gradientTransform="matrix(1, 0, 0, -1, 3679.999, 3686.001)" xlink:href="#linear-gradient"/><linearGradient id="linear-gradient-3" x1="102.5" y1="-14.999" x2="109.5" y2="-14.999" gradientTransform="matrix(1, 0, 0, -1, -83.5, 8.502)" xlink:href="#linear-gradient"/><linearGradient id="linear-gradient-4" x1="3749.999" y1="3719.5" x2="3756.999" y2="3719.5" gradientTransform="matrix(1, 0, 0, -1, -3747.999, 3739.001)" xlink:href="#linear-gradient"/><mask id="mask" x="0" y="0" width="32" height="32" maskUnits="userSpaceOnUse"><path class="cls-1" d="M6,9H4V7A4.006,4.006,0,0,1,8,3h5V5H8A2,2,0,0,0,6,7Z"/><rect class="cls-2" x="6" y="2.001" width="8" height="5"/><path class="cls-1" d="M28,11H26V7a2,2,0,0,0-2-2H21V3h3a4.006,4.006,0,0,1,4,4Z"/><rect class="cls-3" x="23" y="6.001" width="7" height="5" transform="translate(35.001 -17.999) rotate(90)"/><path class="cls-1" d="M24,25H20V23h4a2,2,0,0,0,2-2V19h2v2A4.006,4.006,0,0,1,24,25Z"/><rect class="cls-4" x="19" y="21.001" width="7" height="5" transform="translate(45 47.002) rotate(180)"/><path class="cls-1" d="M10,25H8a4.006,4.006,0,0,1-4-4V17H6v4a2,2,0,0,0,2,2h2Z"/><rect class="cls-5" x="2" y="17.001" width="7" height="5" transform="translate(-14.001 25.001) rotate(-90)"/></mask><linearGradient id="linear-gradient-5" y1="32" x2="32" gradientUnits="userSpaceOnUse"><stop offset="0.1" stop-color="#6fdc8c"/><stop offset="0.9" stop-color="#009d9a"/></linearGradient></defs><g id="Layer_2" data-name="Layer 2"><g id="Dark_theme_icons" data-name="Dark theme icons"><g class="cls-6"><rect class="cls-7" width="32" height="32"/></g><path class="cls-8" d="M16,17a4,4,0,1,0,4,4A4,4,0,0,0,16,17Zm0,6a2,2,0,1,1,2-2A2,2,0,0,1,16,23Z"/><path class="cls-8" d="M11,29v1h2V29a1,1,0,0,1,1-1h4a1,1,0,0,1,1,1v1h2V29a3,3,0,0,0-3-3H14A3,3,0,0,0,11,29Z"/><path class="cls-8" d="M5,17a3,3,0,1,1,3-3A3,3,0,0,1,5,17Zm0-4a1,1,0,1,0,1,1A1,1,0,0,0,5,13Z"/><path class="cls-8" d="M27,17a3,3,0,1,1,3-3A3,3,0,0,1,27,17Zm0-4a1,1,0,1,0,1,1A1,1,0,0,0,27,13Z"/><path class="cls-8" d="M16,7a3,3,0,1,1,3-3A3,3,0,0,1,16,7Zm0-4a1,1,0,1,0,1,1A1,1,0,0,0,16,3Z"/></g></g></svg>
